packages/kaspersky-hexa-ui-icons/src/iconsSVGs/28x20/FlagSc.svg

<svg width="28" height="20" viewBox="0 0 28 20" fill="none" xmlns="http://www.w3.org/2000/svg">
<g clip-path="url(#clip0_5138_1767)">
<path d="M0 2C0 0.895431 0.895431 0 2 0H26C27.1046 0 28 0.895431 28 2V18C28 19.1046 27.1046 20 26 20H2C0.895431 20 0 19.1046 0 18V2Z" fill="white"/>
<mask id="mask0_5138_1767" style="mask-type:luminance" maskUnits="userSpaceOnUse" x="0" y="0" width="28" height="20">
<rect width="28" height="20" rx="2" fill="white"/>
</mask>
<g mask="url(#mask0_5138_1767)">
<path d="M26 19.5V20H2V19.5H26ZM27.5 18V2C27.5 1.17157 26.8284 0.5 26 0.5H2C1.17157 0.5 0.5 1.17157 0.5 2V18C0.5 18.8284 1.17157 19.5 2 19.5V20C0.895431 20 0 19.1046 0 18V2C2.57702e-07 0.895431 0.895431 0 2 0H26C27.1046 0 28 0.895431 28 2V18C28 19.1046 27.1046 20 26 20V19.5C26.8284 19.5 27.5 18.8284 27.5 18Z" fill="#F5F5F5"/>
<path fill-rule="evenodd" clip-rule="evenodd" d="M28 0H0V20H28V13.3333L0 20L28 6.66667V0Z" fill="url(#paint0_linear_5138_1767)"/>
<path fill-rule="evenodd" clip-rule="evenodd" d="M0 0H9.33333L0 20V0Z" fill="#0858B4"/>
<path fill-rule="evenodd" clip-rule="evenodd" d="M18.6667 0H28V6.66667L0 20L18.6667 0Z" fill="#ED3535"/>
<path fill-rule="evenodd" clip-rule="evenodd" d="M28 20V13.3333L0 20H28Z" fill="#08964F"/>
<path fill-rule="evenodd" clip-rule="evenodd" d="M9.33333 0H18.6667L0 20L9.33333 0Z" fill="#FFDD67"/>
</g>
</g>
<defs>
<linearGradient id="paint0_linear_5138_1767" x1="0" y1="0" x2="0" y2="20" gradientUnits="userSpaceOnUse">
<stop stop-color="#1DBE4F"/>
<stop offset="1" stop-color="#159B3F"/>
</linearGradient>
<clipPath id="clip0_5138_1767">
<rect width="28" height="20" fill="white"/>
</clipPath>
</defs>
</svg>

<svg xmlns="http://www.w3.org/2000/svg" width="28" height="20" fill="none" viewBox="0 0 28 20"><g clip-path="url(#a)"><path fill="#fff" d="M0 2C0 .8954.8954 0 2 0h24c1.1046 0 2 .8954 2 2v16c0 1.1046-.8954 2-2 2H2c-1.1046 0-2-.8954-2-2z"/><mask id="b" width="28" height="20" x="0" y="0" maskUnits="userSpaceOnUse" style="mask-type:luminance"><rect width="28" height="20" fill="#fff" rx="2"/></mask><g mask="url(#b)"><path fill="#f5f5f5" d="M26 19.5v.5H2v-.5zm1.5-1.5V2c0-.8284-.6716-1.5-1.5-1.5H2C1.1716.5.5 1.1716.5 2v16c0 .8284.6716 1.5 1.5 1.5v.5c-1.1046 0-2-.8954-2-2V2C0 .8954.8954 0 2 0h24c1.1046 0 2 .8954 2 2v16c0 1.1046-.8954 2-2 2v-.5c.8284 0 1.5-.6716 1.5-1.5"/><path fill="url(#c)" fill-rule="evenodd" d="M28 0H0v20h28v-6.6667L0 20 28 6.6667z" clip-rule="evenodd"/><path fill="#0858b4" fill-rule="evenodd" d="M0 0h9.3333L0 20z" clip-rule="evenodd"/><path fill="#ed3535" fill-rule="evenodd" d="M18.6667 0H28v6.6667L0 20z" clip-rule="evenodd"/><path fill="#08964f" fill-rule="evenodd" d="M28 20v-6.6667L0 20z" clip-rule="evenodd"/><path fill="#ffdd67" fill-rule="evenodd" d="M9.3333 0h9.3334L0 20z" clip-rule="evenodd"/></g></g><defs><linearGradient id="c" x1="0" x2="0" y1="0" y2="20" gradientUnits="userSpaceOnUse"><stop stop-color="#1dbe4f"/><stop offset="1" stop-color="#159b3f"/></linearGradient><clipPath id="a"><path fill="#fff" d="M0 0h28v20H0z"/></clipPath></defs></svg>
